icons-rebrand/svg/archive-bold.svg

<svg width="32" height="32" viewBox="0 0 32 32" fill="none" xmlns="http://www.w3.org/2000/svg">
<path d="M25.032 8.00595H7.009C6.21359 8.00675 5.45099 8.32307 4.88856 8.88551C4.32612 9.44795 4.00979 10.2105 4.009 11.006V23C4.01059 24.3255 4.53788 25.5964 5.47522 26.5337C6.41256 27.4711 7.6834 27.9984 9.009 28H23.032C24.3576 27.9984 25.6284 27.4711 26.5658 26.5337C27.5031 25.5964 28.0304 24.3255 28.032 23V11.006C28.0312 10.2105 27.7149 9.44795 27.1524 8.88551C26.59 8.32307 25.8274 8.00675 25.032 8.00595ZM26.032 22.999C26.0309 23.7943 25.7145 24.5567 25.1522 25.1191C24.5898 25.6815 23.8273 25.9979 23.032 25.999H9.009C8.21359 25.9982 7.45099 25.6818 6.88856 25.1194C6.32612 24.557 6.00979 23.7944 6.009 22.999V11.006C6.00926 10.7408 6.11471 10.4866 6.30219 10.2991C6.48966 10.1117 6.74386 10.0062 7.009 10.006H25.032C25.2971 10.0062 25.5513 10.1117 25.7388 10.2991C25.9263 10.4866 26.0317 10.7408 26.032 11.006V23V22.999ZM5 6.00195H27C27.2652 6.00195 27.5196 5.8966 27.7071 5.70906C27.8946 5.52152 28 5.26717 28 5.00195C28 4.73674 27.8946 4.48238 27.7071 4.29485C27.5196 4.10731 27.2652 4.00195 27 4.00195H5C4.73478 4.00195 4.48043 4.10731 4.29289 4.29485C4.10536 4.48238 4 4.73674 4 5.00195C4 5.26717 4.10536 5.52152 4.29289 5.70906C4.48043 5.8966 4.73478 6.00195 5 6.00195Z" fill="#0F0F0F"/>
<path d="M21 12H11C10.7348 12 10.4804 12.1054 10.2929 12.2929C10.1054 12.4804 10 12.7348 10 13C9.9921 13.7488 10.168 14.4881 10.5124 15.153C10.8567 15.818 11.3589 16.3883 11.975 16.814C13.1565 17.6101 14.5546 18.0228 15.979 17.996C18.97 17.996 22 16.28 22 13C22 12.7348 21.8947 12.4804 21.7071 12.2929C21.5196 12.1054 21.2652 12 21 12ZM15.979 15.996C14.971 16.019 13.979 15.736 13.135 15.186C12.706 14.894 12.3733 14.4812 12.179 14H19.812C19.258 15.365 17.568 15.996 15.978 15.996H15.979Z" fill="#0F0F0F"/>
</svg>

<svg width="32" height="32" viewBox="0 0 32 32" fill="none" xmlns="http://www.w3.org/2000/svg"><path d="M25.032 8.006H7.009a3.003 3.003 0 0 0-3 3V23a5.006 5.006 0 0 0 5 5h14.023a5.006 5.006 0 0 0 5-5V11.006a3.003 3.003 0 0 0-3-3zm1 14.993a3.004 3.004 0 0 1-3 3H9.009a3.003 3.003 0 0 1-3-3V11.006a1.001 1.001 0 0 1 1-1h18.023a1.001 1.001 0 0 1 1 1V23zM5 6.002h22a1 1 0 1 0 0-2H5a1 1 0 1 0 0 2z" fill="#0F0F0F"/><path d="M21 12H11a1 1 0 0 0-1 1 4.577 4.577 0 0 0 1.975 3.814 6.932 6.932 0 0 0 4.004 1.182C18.97 17.996 22 16.28 22 13a1 1 0 0 0-1-1zm-5.021 3.996c-1.008.023-2-.26-2.844-.81A2.622 2.622 0 0 1 12.179 14h7.633c-.554 1.365-2.244 1.996-3.834 1.996z" fill="#0F0F0F"/></svg>
